!!!!SEGMENT: pl-kk--kk-i-1--013-001_borek-krzysztof--missa-te-deum-laudamus-kyrie.krn
!!!cenid: 15xx:696
!!!COM: Borek, Krzysztof
!!!COM-rismID: pe30020454
!!!CDT: 1520-1573
!!!CNT: Polish
!!!OPR: [Missa] Te Deum laudamus
!!!OTL: Kyrie
!!!OMV: 001
!!!PDT:
!!!AGN: Sacred; Mass
!!!SMS-siglum: PL-Kk
!!!SMS-shelfmark: Kk.I.1
!!!SMS-shelfwork: 013-001 M
!!!SMS-variant:
!!!SMS-altvar:
!!!NIFC-rismSourceID: 300257954
!!!NIFC-rismChildID: 300257967
!!!NIFC-islandoraID: pl-kk:1
!!!URL-pdf-islandora: https://repozytorium.nifc.pl/islandora/object/pl-kk%3A1/datastream/PDF/view
!!!URL-scan: https://polish.musicsources.pl/pl/lokalizacje/galeria/rekopisy/5736 @EN{Scan on Polish Music Sources Website} @PL{Skany w portalu Dziedzictwo Muzyki Polskiej w otwartym dostępie}
!!!ONB-nifc: UWAGA: Cantus (s. 75r-81v, skan 0077-0084), Altus (s. 73r-78v, skan 0265-0271), Tenor (s. 71r-76r, skan 0460-0465), Bassus (s. 70v-76r, skan 0632-0637). Części Mszy: 1. Kyrie, 2. Et in terra, 3. Patrem, 4. Sanctus, 5. Agnus Dei
**kern	**text	**kern	**text	**kern	**text	**kern	**text
*part4	*part4	*part3	*part3	*part2	*part2	*part1	*part1
*staff4	*staff4	*staff3	*staff3	*staff2	*staff2	*staff1	*staff1
*I"BASSVS	*	*I"TENOR	*	*I"ALTVS	*	*I"CANTVS	*
*I'B	*	*I'T	*	*I'A	*	*I'S	*
*ICvox	*	*ICvox	*	*ICvox	*	*ICvox	*
*Ibass	*	*Itenor	*	*Itenor	*	*Ialto	*
*mI"Basso	*	*mI"Tenore II	*	*mI"Tenore I	*	*mI"Alto	*
*mI'B	*	*mI'T 2	*	*mI'T 1	*	*mI'A	*
*clefF4	*	*clefC4	*	*clefC4	*	*clefC3	*
*	*	*mclefGv2	*	*mclefGv2	*	*mclefG2	*
*k[]	*	*k[]	*	*k[]	*	*k[]	*
*d:	*	*d:	*	*d:	*	*d:	*
*M2/1	*	*M2/1	*	*M2/1	*	*M2/1	*
*met(c|)	*	*met(c|)	*	*met(c|)	*	*met(c|)	*
*mmet(c|)	*	*mmet(c|)	*	*mmet(c|)	*	*mmet(c|)	*
=1	=1	=1	=1	=1	=1	=1	=1
*xywh-#632:1347,776,4278,861	*	*xywh-#460:6115,721,4060,892	*	*xywh-#265:5845,687,4235,921	*	*xywh-#77:6033,2332,4285,942	*
!LO:TX:a:t=Te Deum \nlaudamus\nC, B:mod=	!	!LO:TX:a:t=[K. Borek&colon; Missa Te Deum]:mod=	!	!	!	!LO:TX:a:t=Te deum \nlaudamus:mod=	!
0r	.	0r	.	1E	Kÿ-	1r	.
.	.	.	.	2.G/	-ri-	1B	Ky-
.	.	.	.	4A/	.	.	.
=2	=2	=2	=2	=2	=2	=2	=2
0r	.	1r	.	2B/	-e	1d	-ri-
.	.	.	.	1G	.	.	.
!	!	!	!LO:MO:mod=Ky-	!	!	!	!
.	.	1E	Kÿ-	.	.	2.e\	-e
!	!	!	!	!	!LO:MO:mod=e-	!	!
.	.	.	.	1c	E-	.	.
.	.	.	.	.	.	4d\	.
=3	=3	=3	=3	=3	=3	=3	=3
*	*	*lig	*	*	*	*	*
1r	.	1G	-ri-	.	.	4e\	.
.	.	.	.	.	.	4f\	.
!	!	!	!	!	!LO:MO:null:mod=.	!	!
.	.	.	.	2B/	-lei-	2g\	.
!	!LO:MO:mod=Ky-	!	!	!	!LO:MO:null:mod=.	!	!LO:MO:null:mod=[e-
1AA	Kÿ-	1A	.	0c	-ſon.	1.e	.
*	*	*Xlig	*	*	*	*	*
=4	=4	=4	=4	=4	=4	=4	=4
*lig	*	*	*	*	*	*	*
1C	-ri-	2A/	-e	.	.	.	.
.	.	2G/	.	.	.	2e\	.
!	!	!	!LO:MO:mod=e-	!	!LO:MO:null:mod=-lei-	!	!
1D	.	2.F/	E-	2.A/	.	2d\	.
.	.	.	.	.	.	1d	.
.	.	4E/	.	4G/	.	.	.
*Xlig	*	*	*	*	*	*	*
=5	=5	=5	=5	=5	=5	=5	=5
2D/	-e	4F/	.	4A/	.	.	.
.	.	4G/	.	4B/	.	.	.
*	*	*	*	*	*	*custos:f	*
2C/	.	1A	.	2c/	.	2e\	.
*	*	*	*	*	*	*xywh-#77:5987,3163,4253,667	*
!	!	!	!	!	!LO:MO:null:mod=-son	!LO:LB:g=original	!
2D/	.	.	.	1B	.	2f\	.
2E\	.	2G/	-lei-	.	.	2g\	.
=6	=6	=6	=6	=6	=6	=6	=6
!	!LO:MO:null:mod=[e-	!	!	!	!	!	!
1F	.	1A	-ſon	2r	.	2.c/	.
!	!	!	!	!	!LO:MO:null:mod=[Ky-	!	!
.	.	.	.	2A/	.	.	.
.	.	.	.	.	.	4d\	.
*custos:D	*	*	*	*	*	*	*
!	!LO:MO:null:mod=-lei-	!	!	!	!	!	!
0E	.	2r	.	0c	.	4e\	.
.	.	.	.	.	.	4f\	.
.	.	2E/	Te	.	.	1g	.
!LO:LB:g=original	!	!	!	!	!	!	!
=7	=7	=7	=7	=7	=7	=7	=7
*	*	*lig	*	*	*	*	*
.	.	1G	De-	.	.	.	.
.	.	.	.	.	.	2e\	.
*xywh-#632:1324,1553,4176,861	*	*custos:A	*	*custos:d	*	*	*
!	!LO:MO:null:mod=-son	!	!	!	!LO:MO:null:mod=-ri-	!	!LO:MO:null:mod=-lei-
1D	.	1A	.	1d	.	1.f	.
*	*	*Xlig	*	*	*	*	*
!	!	!LO:LB:g=original	!	!LO:LB:g=original	!	!	!
=8	=8	=8	=8	=8	=8	=8	=8
*	*	*xywh-#460:6053,1510,4157,927	*	*xywh-#265:5831,1526,4248,866	*	*	*
!	!	!	!	!	!LO:MO:null:mod=-e	!	!
2r	.	0A	-um	2d\	.	.	.
!	!LO:MO:null:mod=Ky-	!	!	!	!	!	!
2AA/	.	.	.	2c/	.	2e\	.
2D/	.	.	.	2d\	.	2d\	.
!	!LO:MO:null:mod=-ri-	!	!	!	!	!	!
2AA/	.	.	.	2e\	.	2c/	.
=9	=9	=9	=9	=9	=9	=9	=9
!	!LO:MO:null:mod=-e	!	!	!	!	!	!
2D/	.	0A	lau-	2f\	.	2d\	.
!	!LO:MO:null:mod=e-	!	!	!	!	!	!LO:MO:null:mod=-son
2AA/	.	.	.	2e\	.	2c/	.
2D/	.	.	.	1d	.	2r	.
!	!LO:MO:null:mod=-lei-	!	!	!	!	!	!LO:MO:null:mod=Ky-
1D\	.	.	.	.	.	1f	.
=10	=10	=10	=10	=10	=10	=10	=10
.	.	0A	-da-	1r	.	.	.
4C/	.	.	.	.	.	4e\	.
4BB/	.	.	.	.	.	4d\	.
!	!	!	!	!	!	!	!LO:MO:null:mod=-ri-
2C/	.	.	.	2r	.	2e\	.
!	!	!	!	!	!LO:MO:null:mod=e-	!	!
2D/	.	.	.	2d\	.	2f\	.
=11	=11	=11	=11	=11	=11	=11	=11
*	*	*lig	*	*	*	*	*
!	!LO:MO:null:mod=-son	!	!	!	!LO:MO:null:mod=-lei-	!	!LO:MO:null:mod=-e
2GG/	.	0B	.	1.d	.	1g	.
!	!LO:MO:null:mod=Ky-	!	!	!	!	!	!
2.G\	.	.	.	.	.	.	.
!	!	!	!	!	!	!	!LO:MO:null:mod=e-
.	.	.	.	.	.	2.g\	.
4F\	.	.	.	.	.	.	.
4E\	.	.	.	1e	.	.	.
4D\	.	.	.	.	.	4f\	.
=12	=12	=12	=12	=12	=12	=12	=12
2C/	.	0c	.	.	.	2g\	.
!	!LO:MO:null:mod=-ri-	!	!	!	!	!	!
2F\	.	.	.	2f\	.	2a\	.
*	*	*	*	*	*	*xywh-#78:1484,772,4264,809	*
!	!LO:MO:null:mod=-e	!	!	!	!	!	!LO:MO:null:mod=-lei-
2E\	.	.	.	2g\	.	2g\	.
!	!LO:MO:null:mod=e-	!	!	!	!	!	!
2F\	.	.	.	4f\	.	2a\	.
.	.	.	.	4e\	.	.	.
*	*	*	*	*	*	*custos:g	*
*	*	*Xlig	*	*	*	*	*
=13	=13	=13	=13	=13	=13	=13	=13
*	*	*lig	*	*	*	*	*
!	!LO:MO:null:mod=-lei-	!	!LO:MO:mod=-mus	!	!LO:MO:null:mod=-son]	!	!
1G	.	0B	-mus.	2d\	.	2g\	.
!	!	!	!	!	!LO:MO:null:mod=e-	!	!LO:MO:null:mod=-son]
.	.	.	.	2d\	.	2.g\	.
!	!LO:MO:null:mod=-son]	!	!	!	!	!	!
1E	.	.	.	2e\	.	.	.
.	.	.	.	.	.	4f\	.
.	.	.	.	2g\	.	4e\	.
.	.	.	.	.	.	4d\	.
=14	=14	=14	=14	=14	=14	=14	=14
!	!LO:MO:mod=e-	!LO:SIC:s=[0A	!	!	!LO:MO:null:mod=.	!	!LO:MO:null:mod=e-
2.F\	E-	[0A;l	.	1.f	E-	1c	E-
4E\	.	.	.	.	.	.	.
*xywh-#632:1313,2363,4216,765	*	*	*	*	*	*	*
2D/	.	.	.	.	.	2d\	.
!	!LO:MO:null:mod=.	!	!	!	!LO:MO:null:mod=.	!	!
2C/	-lei-	.	.	2e\	-lei-	2e\	-le-
!	!	!LO:MO:mod=*null:null	!	!	!	!	!
*custos:D	*	*Xlig	*	*	*	*	*
!LO:LB:g=original	!	!	!	!	!	!	!
=15	=15	=15	=15	=15	=15	=15	=15
!	!LO:MO:mod=-lei-	!	!	!	!LO:MO:null:mod=-lei-	!	!
0D	-ſon.	0A_	.	0d	-ſon.	0f	-i-
=16	=16	=16	=16	=16	=16	=16	=16
*	*	*	*	*custos:A	*	*	*
!	!LO:MO:null:mod=-son	!LO:SIC:s=0A];	!	!	!LO:MO:null:mod=-son	!	!
0AA;	.	0A]	.	0c;	.	0e;	-ſon
!	!	!LO:MO:null:mod=*Xlig	!	!LO:MO:mod=*null:null	!	!	!
*	*	*	*	*clefC4	*	*	*
!	!	!	!	!LO:LB:g=original	!	!	!
=17||	=17||	=17||	=17||	=17||	=17||	=17||	=17||
*	*	*	*	*xywh-#265:5872,2261,4248,893	*	*	*
1F	Chri-	1c	Chri-	1A	Chri-	1f	Chri-
!	!LO:MO:null:mod=-ste	!	!LO:MO:null:mod=-ste	!	!	!	!LO:MO:null:mod=-ste
1F	.	1c	.	1A	-ſte	1f	.
=18	=18	=18	=18	=18	=18	=18	=18
!	!	!	!LO:MO:null:mod=.	!	!	!	!LO:MO:null:mod=.
2G\	.	2B\	-ſte	2G/	.	2d\	-ſte.
!	!LO:MO:mod=[e-	!	!LO:MO:null:mod=e-	!	!LO:MO:null:mod=[e-	!	!LO:MO:null:mod=[e-
2F\	-ſte	2A/	.	1A	.	1f	.
!	!	!	!LO:MO:null:mod=.	!	!	!	!
2D/	.	1B	E-	.	.	.	.
2E\	.	.	.	2G/	.	1e	.
=19	=19	=19	=19	=19	=19	=19	=19
!	!LO:MO:null:mod=-lei-	!	!	!	!LO:MO:null:mod=-lei-	!	!
0F	.	1A	-lei-	2A/	.	.	.
!	!	!	!	!	!LO:MO:null:mod=-son	!	!
.	.	.	.	2D/	.	4d\	.
*	*	*	*	*	*	*custos:d	*
.	.	.	.	.	.	4c\	.
*	*	*	*	*	*	*xywh-#78:1516,1546,4200,657	*
!	!	!	!	!	!	!LO:LB:g=original	!LO:MO:null:mod=-lei-
.	.	2A/	-son	2r	.	1d	.
!	!	!	!LO:MO:null:mod=e-	!	!LO:MO:null:mod=e-	!	!
.	.	1A\	.	2d\	.	.	.
=20	=20	=20	=20	=20	=20	=20	=20
!	!	!	!	!	!	!	!LO:MO:null:mod=-son
0E	.	.	.	2c\	.	0e	.
.	.	4G/	.	4B\	.	.	.
.	.	4F/	.	4A\	.	.	.
*	*	*custos:A	*	*	*	*	*
.	.	1G	.	1B	.	.	.
!	!	!LO:LB:g=original	!	!	!	!	!
=21	=21	=21	=21	=21	=21	=21	=21
*	*	*xywh-#460:6004,2340,4240,878	*	*	*	*	*
!	!LO:MO:null:mod=-son	!	!LO:MO:null:mod=-lei-	!	!	!	!
0AA	.	0A	.	2c\	.	1r	.
.	.	.	.	1d	.	.	.
!	!	!	!	!	!	!	!LO:MO:null:mod=e-
.	.	.	.	.	.	1e	.
.	.	.	.	2c\	.	.	.
=22	=22	=22	=22	=22	=22	=22	=22
!	!	!	!	!	!LO:MO:null:mod=-lei-	!	!
1r	.	0F	.	2d\	.	2f\	.
!	!	!	!	!	!	!	!LO:MO:null:mod=-lei-
.	.	.	.	4c\	.	1a	.
*	*	*	*	*custos:c	*	*	*
.	.	.	.	4B\	.	.	.
!	!	!	!	!LO:LB:g=original	!	!	!
!	!	!	!	!LO:MO:mod=*null:null	!	!	!
*	*	*	*	*clefC3	*	*	*
*	*	*	*	*xywh-#265:5817,3088,4276,1079	*	*	*
!	!LO:MO:null:mod=Chri-	!	!	!	!	!	!
1A	.	.	.	2c\	.	.	.
.	.	.	.	2d\	.	4g\	.
.	.	.	.	.	.	4f\	.
=23	=23	=23	=23	=23	=23	=23	=23
*lig	*	*	*	*	*	*	*
!	!	!	!LO:MO:null:mod=-son	!	!LO:MO:null:mod=-son	!	!LO:MO:null:mod=-son
1G	.	1E	.	0e	.	1g	.
1E	.	1r	.	.	.	2r	.
!	!	!	!	!	!	!	!LO:MO:null:mod=Chri-
.	.	.	.	.	.	2g\	.
*Xlig	*	*	*	*	*	*	*
=24	=24	=24	=24	=24	=24	=24	=24
!	!LO:MO:null:mod=-ste	!	!	!	!LO:MO:null:mod=Chri-	!	!LO:MO:null:mod=-ste
2.F\	.	1A	Tu	1c	.	2.a\	.
*custos:D	*	*	*	*	*	*	*
4E\	.	.	.	.	.	4g\	.
*xywh-#632:1373,3160,4114,1025	*	*	*	*	*	*	*
!LO:LB:g=original	!	!	!	!	!LO:MO:null:mod=-ste]	!	!
2D/	.	1A	rex	2d\	.	2f\	.
2C/	.	.	.	2e\	.	2e\	.
=25	=25	=25	=25	=25	=25	=25	=25
*	*	*lig	*	*	*	*	*
2D/	.	1A	glo-	2d\	.	2f\	.
!	!LO:MO:null:mod=e-	!	!	!	!	!	!LO:MO:null:mod=e-
2AA/	.	.	.	2c/	.	4e\	.
.	.	.	.	.	.	4d\	.
!	!LO:MO:null:mod=-lei-	!	!	!	!LO:MO:null:mod=e-	!	!
1E	.	1G	.	2.B/	.	4e\	.
.	.	.	.	.	.	4f\	.
!	!	!	!	!	!	!	!LO:MO:null:mod=-le-
.	.	.	.	.	.	1g	.
.	.	.	.	4c\	.	.	.
*	*	*Xlig	*	*	*	*	*
=26	=26	=26	=26	=26	=26	=26	=26
!	!	!	!	!	!LO:MO:null:mod=.	!	!
1D	.	1A	-ri-	1.d	E-	.	.
!	!	!	!	!	!	!	!LO:MO:null:mod=-i-
.	.	.	.	.	.	2f\	.
!	!LO:MO:null:mod=-son]	!	!LO:MO:mod=-ae	!	!	!	!LO:MO:null:mod=-son
2GG/	.	1B	-(ae)	.	.	1g	.
!	!LO:MO:mod=e-	!	!	!	!	!	!
2.G\	E-	.	.	2d\	.	.	.
=27	=27	=27	=27	=27	=27	=27	=27
!	!	!	!LO:MO:mod=Chri-	!	!	!	!
.	.	0G	Chr(i-	4e\	.	2r	.
4F\	.	.	.	4d\	.	.	.
*	*	*	*	*	*	*custos:g	*
!	!	!	!	!	!LO:MO:mod=-le-	!	!LO:MO:null:mod=e-
4E\	.	.	.	1d	-lei-	2g\	.
!	!LO:MO:null:mod=.	!	!	!	!	!	!
4D/	-le-	.	.	.	.	.	.
*	*	*	*	*	*	*xywh-#78:1507,2302,4161,912	*
!	!LO:MO:mod=-lei-	!	!	!	!	!LO:LB:g=original	!LO:MO:null:mod=-le-
1E	-i-	.	.	.	.	2g\	.
!	!	!	!	!	!LO:MO:null:mod=-i-	!	!LO:MO:null:mod=-i-
.	.	.	.	2c/	.	2e\	.
=28	=28	=28	=28	=28	=28	=28	=28
*custos:C	*	*custos:c	*	*custos:e	*	*	*
!	!	!	!LO:MO:mod=-ste	!	!	!	!LO:MO:null:mod=-son]
0D;	-ſon	0A;	-st)e	0d;	-ſon	0f;	.
!LO:LB:g=original	!	!LO:LB:g=original	!	!LO:LB:g=original	!	!	!
=29||	=29||	=29||	=29||	=29||	=29||	=29||	=29||
*xywh-#632:5759,739,4125,895	*	*xywh-#460:6032,3151,4462,1003	*	*xywh-#266:1414,621,4145,893	*	*	*
!	!	!	!LO:MO:mod=Ky-	!	!LO:MO:mod=Ky-	!	!LO:MO:mod=Ky-
2.C/	Kÿ-	0c	Kÿ-	1e	Kÿ-	1.g	Kÿ-
4D\	.	.	.	.	.	.	.
!	!	!	!	!	!LO:MO:null:mod=-ri-	!	!
2E\	.	.	.	2e\	.	.	.
!	!	!	!	!	!LO:MO:null:mod=.	!	!LO:MO:null:mod=.
1F	-ri-	.	.	4A/	-ri-	1a	-ri-
!	!	!	!	!	!LO:MO:null:mod=.	!	!
.	.	.	.	4B/	-e	.	.
=30	=30	=30	=30	=30	=30	=30	=30
.	.	0c	-ri-	4c\	.	.	.
.	.	.	.	4d\	.	.	.
!	!LO:MO:null:mod=.	!	!	!	!LO:MO:null:mod=-e	!	!LO:MO:null:mod=.
4E\	-e	.	.	1e	.	4g\	-e.
4D\	.	.	.	.	.	4f\	.
!	!	!	!	!	!	!	!LO:MO:null:mod=-ri-
2E\	.	.	.	.	.	2g\	.
!	!	!	!	!	!LO:MO:null:mod=[e-	!	!
2F\	.	.	.	2A/	.	4f\	.
.	.	.	.	.	.	4e\	.
=31	=31	=31	=31	=31	=31	=31	=31
!	!LO:MO:null:mod=-e	!	!LO:MO:null:mod=.	!	!	!	!
2G\	.	2B\	-e	4B/	.	4d\	.
.	.	.	.	4c/	.	4e\	.
!	!LO:MO:null:mod=[e-	!	!LO:MO:null:mod=-e	!	!	!	!
2D/	.	1A	.	4d/	.	2f\	.
.	.	.	.	4c/	.	.	.
!	!	!	!	!	!LO:MO:null:mod=-lei-	!	!LO:MO:null:mod=-e
1E	.	.	.	1B	.	2.e\	.
.	.	2G/	.	.	.	.	.
.	.	.	.	.	.	4d\	.
=32	=32	=32	=32	=32	=32	=32	=32
!	!	!	!LO:MO:mod=e-	!	!LO:MO:null:mod=-son	!	!
1.F	.	1.A	E-	1A	.	1c	.
.	.	.	.	1r	.	1r	.
2E\	.	2G/	.	.	.	.	.
=33	=33	=33	=33	=33	=33	=33	=33
2D/	.	2F/	.	2r	.	0r	.
!	!	!	!LO:MO:mod=-le-	!	!LO:MO:null:mod=Ky-	!	!
2C/	.	1E	-lei-	2c/	.	.	.
1BB	.	.	.	1.d	.	.	.
!	!	!	!LO:MO:null:mod=-i-	!	!	!	!
.	.	2D/	.	.	.	.	.
=34	=34	=34	=34	=34	=34	=34	=34
!	!LO:MO:null:mod=-lei-	!	!	!	!	!	!LO:MO:null:mod=[Ky-
1AA	.	1E	-ſon	.	.	1e	.
.	.	.	.	2c/	.	.	.
!	!LO:MO:null:mod=-son	!	!	!	!	!	!
0D	.	1r	.	2.d\	.	2.f\	.
*	*	*	*	*	*	*custos:a	*
.	.	.	.	4e\	.	4g\	.
!	!	!	!	!	!	!LO:LB:g=original	!
=35	=35	=35	=35	=35	=35	=35	=35
*	*	*	*	*	*	*xywh-#78:1466,3148,4274,682	*
.	.	0A	Mi-	2f\	.	2a\	.
!	!	!	!	!	!LO:MO:null:mod=-ri-	!	!
.	.	.	.	1d	.	4g\	.
.	.	.	.	.	.	4f\	.
!	!	!	!	!	!	!	!LO:MO:null:mod=-ri-
1r	.	.	.	.	.	1e	.
.	.	.	.	2c/	.	.	.
=36	=36	=36	=36	=36	=36	=36	=36
*	*	*	*	*custos:e	*	*	*
!	!LO:MO:null:mod=Ky-	!	!	!	!LO:MO:null:mod=-e	!	!LO:MO:null:mod=-e
1D	.	1A	-ſe-	1d	.	2f\	.
!	!	!	!	!	!	!	!LO:MO:null:mod=e-
.	.	.	.	.	.	2d\	.
!	!	!	!	!LO:LB:g=original	!	!	!
2C/	.	1A	-re-	1r	.	2e\	.
!	!LO:MO:null:mod=-ri-	!	!	!	!	!	!
2.D/	.	.	.	.	.	2.f\	.
=37	=37	=37	=37	=37	=37	=37	=37
.	.	1A	-re	1r	.	.	.
4E\	.	.	.	.	.	4e\	.
2F\	.	.	.	.	.	4c\	.
.	.	.	.	.	.	4d\	.
*	*	*	*	*xywh-#266:1421,1439,4083,921	*	*	*
!	!	!	!	!	!LO:MO:null:mod=Ky-	!	!
4C/	.	1G	noſ-	1.e	.	4e\	.
4D/	.	.	.	.	.	4f\	.
!	!	!	!	!	!	!	!LO:MO:null:mod=-lei-
4E\	.	.	.	.	.	2.g\	.
*custos:G	*	*	*	*	*	*	*
4F\	.	.	.	.	.	.	.
!LO:LB:g=original	!	!	!	!	!	!	!
=38	=38	=38	=38	=38	=38	=38	=38
*xywh-#632:5748,1560,4284,867	*	*	*	*	*	*	*
!	!LO:MO:null:mod=-e	!	!	!	!	!	!
2G\	.	1B	-tri	.	.	.	.
.	.	.	.	.	.	4f\	.
!	!LO:MO:null:mod=e-	!	!	!	!LO:MO:null:mod=-ri-	!	!
2GG/	.	.	.	2d\	.	2d\	.
*	*	*custos:A	*	*	*	*	*
!	!	!	!	!	!LO:MO:null:mod=-e	!	!LO:MO:null:mod=-son
2.C/	.	0c	Do-	2c/	.	1e	.
!	!	!	!	!	!LO:MO:null:mod=e-	!	!
.	.	.	.	1G	.	.	.
4D\	.	.	.	.	.	.	.
!	!	!LO:LB:g=original	!	!	!	!	!
=39	=39	=39	=39	=39	=39	=39	=39
2E\	.	.	.	.	.	2r	.
!	!LO:MO:null:mod=-le-	!	!	!	!LO:MO:null:mod=-lei-	!	!LO:MO:null:mod=Ky-
2.F\	.	.	.	2.A/	.	2f\	.
*	*	*xywh-#461:1542,710,2406,825	*	*	*	*	*
!	!	!	!	!	!	!	!LO:MO:null:mod=-ri-
.	.	1A	-mi-	.	.	1f	.
4E\	.	.	.	4G/	.	.	.
2D/	.	.	.	2F/	.	.	.
=40	=40	=40	=40	=40	=40	=40	=40
2C/	.	1A	-ne	2c/	.	2e\	.
!	!LO:MO:null:mod=-i-	!	!	!	!LO:MO:null:mod=-son	!	!
2D/	.	.	.	2A/	.	1d	.
!	!LO:MO:null:mod=-son	!	!	!	!	!	!
1AA	.	1A	mi-	2r	.	.	.
!	!	!	!	!	!LO:MO:null:mod=Ky-	!	!
.	.	.	.	2e\	.	4c/	.
.	.	.	.	.	.	4B/	.
=41	=41	=41	=41	=41	=41	=41	=41
*	*	*lig	*	*	*	*	*
!	!LO:MO:null:mod=Ky-	!	!	!	!LO:MO:null:mod=-ri-	!	!
2.AA/	.	1A	-ſe-	2.e\	.	2.c/	.
*	*	*	*	*	*	*custos:e	*
4BB/	.	.	.	4d\	.	4d\	.
*	*	*	*	*	*	*xywh-#78:6008,722,4102,873	*
!	!	!	!	!	!	!LO:LB:g=original	!
4C/	.	1G	.	2c/	.	4e\	.
4D/	.	.	.	.	.	4f\	.
!	!LO:MO:null:mod=-ri-	!	!	!	!	!	!LO:MO:null:mod=-e
2E\	.	.	.	4B/	.	1g	.
.	.	.	.	4c/	.	.	.
*	*	*Xlig	*	*	*	*	*
=42	=42	=42	=42	=42	=42	=42	=42
!	!LO:MO:null:mod=-e	!	!	!	!LO:MO:null:mod=-e]	!	!
1D	.	1A	-re-	0d	.	.	.
!	!	!	!	!	!	!	!LO:MO:null:mod=e-
.	.	.	.	.	.	2f\	.
!	!LO:MO:null:mod=e-	!	!	!	!	!	!LO:MO:null:mod=-lei-
1GG	.	1B	-re	.	.	1g	.
=43	=43	=43	=43	=43	=43	=43	=43
!	!LO:MO:null:mod=-lei-	!	!	!	!	!	!
2.C/	.	0G	no-	1c	.	1e	.
4D\	.	.	.	.	.	.	.
!	!	!	!	!	!	!	!LO:MO:null:mod=-son]
1E	.	.	.	2r	.	1.e	.
!	!	!	!	!	!LO:MO:null:mod=e-	!	!
.	.	.	.	2e\	.	.	.
=44	=44	=44	=44	=44	=44	=44	=44
!	!LO:MO:null:mod=-son]	!	!	!	!	!	!
2AA/	.	[0A;l	-ſtri	2c/	.	.	.
!	!LO:MO:mod=e-	!	!	!	!LO:MO:null:mod=.	!	!LO:MO:mod=e-
1D	E-	.	.	1f	e-	1d	E-
2C/	.	.	.	2e\	.	2e\	.
=45	=45	=45	=45	=45	=45	=45	=45
0D	-lei-	0A_	.	0d	-lei-	0f	-lei-
=46	=46	=46	=46	=46	=46	=46	=46
!	!LO:MO:mod=-son	!	!	!	!LO:MO:mod=-son	!	!
0AA;	-ſon.	0A]	.	0c#X;	-ſon.	0e;	-ſon
==	==	==	==	==	==	==	==
*-	*-	*-	*-	*-	*-	*-	*-
!!!system-decoration: [(*)]
!!LO:MO:ori
!!!RDF**kern: l = terminal long
!!LO:MO:end
!!!filter-modern: sic -sq | shed -e "s/TX(.*):t=P:/tx$1:t=P:/LG" | shed -e "s/^(\d+[\/\\]right)/$1yy/I;s/^(\d+[\/\\]left)/$1yy/I" | shed -e "s/-//B" | shed -e "s/^custos:/Xcustos:/I" | shed -k -e "s/LO:N:acc/LO:n:acc:/L" | autostem -r | tie -s  | humtr -p | modori -m
!!!ENC: Mateusz Solarz
!!!END: 2022-02-15
!!!AIN: 1 alto 1 bass 2 tenor
!!!ENC: Natalia Wrzos
!!!END: 2022-02-23
!!!ENC-modern: Andrzej Borzym
!!!END-modern: 2022-07-16
!!!ENC-iiif: Elżbieta Cabała
!!!END-iiif: 2022-09-02
!!!YEC: Copyright 2022 Narodowy Instytut Fryderyka Chopina (https://polishscores.org)
!!!YEM: License CC-BY-4.0 (https://creativecommons.org/licenses/by/4.0)
!!!IIIF: https://repozytorium.nifc.pl/islandora/object/pl-kk%3A1/datastream/IIIF/view
